remix/Document/newspaper-line.svg

<svg viewBox="0 0 24 24" fill="currentColor" xmlns="http://www.w3.org/2000/svg"><path d="M16 20V4H4V19C4 19.5523 4.44772 20 5 20H16ZM19 22H5C3.34315 22 2 20.6569 2 19V3C2 2.44772 2.44772 2 3 2H17C17.5523 2 18 2.44772 18 3V10H22V19C22 20.6569 20.6569 22 19 22ZM18 12V19C18 19.5523 18.4477 20 19 20C19.5523 20 20 19.5523 20 19V12H18ZM6 6H12V12H6V6ZM8 8V10H10V8H8ZM6 13H14V15H6V13ZM6 16H14V18H6V16Z"/></svg>

<svg viewBox="0 0 24 24" xmlns="http://www.w3.org/2000/svg"><path fill="none" d="M0 0h24v24H0Z"/><path d="M16 20V4H4v15 0c0 .55.44 1 1 1h11Zm3 2H5v0c-1.66 0-3-1.35-3-3V3v0c0-.56.44-1 1-1h14v0c.55 0 1 .44 1 1v7h4v9 0c0 1.65-1.35 3-3 3Zm-1-10v7 0c0 .55.44 1 1 1 .55 0 1-.45 1-1v-7h-2ZM6 6h6v6H6V6Zm2 2v2h2V8H8Zm-2 5h8v2H6v-2Zm0 3h8v2H6v-2Z"/></svg>
